X:25
T: April's Fool
C: Jimmy Keane
N:  Cappal Beag Music
Z: B.Black
R: jig
M: 4/4
L: 1/8
K: G
D | GAB GAB | E2 E E2 D | GAB dBd | edB AGE |
GAB GAB | E2 E E2 D | BeB dBA | BGF G2 :|
A | Bdd dBd | egg gab | age dBG | BdB AGE |
|1 Bdd dBd | egg gab | age dBA | BAF G2 :|
|2 GAB GAB | E2 E E2 D | BeB dBA | BGF G2 :|
